brandFactory_export/2.Regular/Bombilla idea_2Regular.svg

<?xml version="1.0" encoding="UTF-8"?>
<svg width="24px" height="24px" viewBox="0 0 24 24" version="1.1" xmlns="http://www.w3.org/2000/svg" xmlns:xlink="http://www.w3.org/1999/xlink">
    <title>2.Regular/Bombilla idea_2Regular</title>
    <g id="Symbols" stroke="none" stroke-width="1" fill="none" fill-rule="evenodd">
        <g id="2.Regular/Bombilla-idea_2Regular" fill="#5CB615" fill-rule="nonzero">
            <path d="M15.0168067,15.0319328 C16.4016807,14.1848739 17.0739496,12.7428571 17.0739496,10.6285714 C17.0739496,9.08907563 16.5831933,5.49243697 12.0420168,5.39495798 C11.8537815,5.38823529 11.6588235,5.38823529 11.4806723,5.38823529 L11.4369748,5.38823529 C9.59495798,5.39831933 6.50588235,6.08739496 6.50588235,10.594958 C6.50588235,12.7159664 7.19495798,14.2117647 8.55966387,15.0386555 L9.26890756,15.4655462 L9.27563025,16.2857143 L9.28571429,17.6201681 C9.28571429,17.8016807 9.31260504,17.892437 9.32605042,17.9260504 C9.42352941,17.9563025 9.73277311,18.0268908 10.6,18.0268908 L12.9966387,18.0268908 C13.8605042,18.0268908 14.1831933,17.9630252 14.2907563,17.9294118 C14.3176471,17.8319328 14.3277311,17.7310924 14.3277311,17.6302521 L14.3176471,16.2957983 L14.3142857,15.4655462 C14.3042017,15.4655462 15.0168067,15.0319328 15.0168067,15.0319328 L15.0168067,15.0319328 Z M12.0756303,3.91596639 C13.4033613,3.94285714 18.5731092,4.46386555 18.5731092,10.6285714 C18.5731092,13.7277311 17.2689076,15.394958 15.8067227,16.2890756 L15.8168067,17.6336134 C15.8168067,18.2487395 15.6420168,18.7260504 15.2890756,19.0420168 C14.9462185,19.3512605 14.4252101,19.5092437 12.989916,19.5092437 L10.5932773,19.5092437 C9.19159664,19.5092437 8.66722689,19.3512605 8.32436975,19.0420168 C7.96470588,18.7260504 7.78319328,18.2487395 7.78319328,17.6336134 L7.77310924,16.2957983 C6.31092437,15.4084034 5.00672269,13.7277311 5.00672269,10.5915966 C5.00672269,4.37983193 10.0689076,3.91596639 11.4302521,3.90588235 C11.6386555,3.90588235 11.8705882,3.90588235 12.0756303,3.91596639 Z M11.3428571,6.15798319 C13.6319328,6.20840336 16.1563025,7.48571429 16.3378151,10.9243697 C16.3579832,11.3344538 16.0386555,11.6806723 15.6285714,11.7008675 L15.5882353,11.7008675 C15.1915966,11.7042017 14.8655462,11.394958 14.8420168,11.0016807 C14.687395,8.0302521 12.3109244,7.65714286 11.2991597,7.63697479 C11.1647059,7.63361345 11.0268908,7.64033613 10.8890756,7.63361345 C10.4789916,7.63697479 10.1428571,7.30420168 10.1394958,6.89411765 C10.1394958,6.48403361 10.4756303,6.15462185 10.8890756,6.15462185 C11.0369748,6.15462185 11.2016807,6.15462185 11.3428571,6.15798319 Z M15.0605042,20.1042017 C15.4739496,20.1042017 15.810084,20.4369748 15.810084,20.8436975 C15.810084,21.2537815 15.4739496,21.5831933 15.0605042,21.5831933 L8.70756303,21.5831933 C8.29747899,21.5865546 7.96134454,21.2537815 7.95798319,20.8436975 C7.95798319,20.4336134 8.29411765,20.1042017 8.70756303,20.1042017 L15.0605042,20.1042017 Z M14.2033613,22.1445378 C14.6168067,22.1445378 14.9529412,22.4773109 14.9529412,22.8840336 C14.9529412,23.2941176 14.6168067,23.6235294 14.2033613,23.6235294 L9.37310924,23.6235294 C8.96302521,23.6268908 8.62689076,23.2941176 8.62352941,22.8840336 C8.62352941,22.4739496 8.95966387,22.1445378 9.37310924,22.1445378 L14.2033613,22.1445378 L14.2033613,22.1445378 Z M11.7428571,3.20002524 C11.3327731,3.20336134 10.9966387,2.87058824 10.9932773,2.4605042 L10.9932773,0.739495798 C10.9932773,0.329411765 11.3294118,0 11.7428571,0 C12.1563025,0 12.492437,0.329411765 12.492437,0.739495798 L12.492437,2.46386555 C12.4890756,2.87058824 12.1563025,3.20002524 11.7428571,3.20002524 Z M17.8672269,5.17983193 C17.6689076,5.17983193 17.4806723,5.10252101 17.3394958,4.96470588 C17.0504202,4.68235294 17.0470588,4.21848739 17.3294118,3.92941176 L17.3394958,3.91932773 L18.5697479,2.69915966 C18.8621849,2.41008403 19.3361345,2.41008403 19.6285714,2.69915966 C19.9176471,2.98487395 19.9210084,3.4487395 19.6352941,3.73781513 L19.6285714,3.74453782 L18.394958,4.96134454 C18.2571429,5.10252101 18.0655462,5.17983193 17.8672269,5.17983193 L17.8672269,5.17983193 Z M6.05210084,5.17647059 C5.75966387,5.46554622 5.28571429,5.46554622 4.99327731,5.17647059 L3.76302521,3.95966387 C3.47394958,3.67731092 3.47058824,3.21008403 3.75294118,2.9210084 L3.76302521,2.91092437 C4.05546218,2.62184874 4.52605042,2.62184874 4.82184874,2.91092437 L6.05210084,4.13109244 C6.34117647,4.41680672 6.34453782,4.88067227 6.05882353,5.1697479 L6.05210084,5.17647059 Z M3.50084034,9.54285714 C3.91428571,9.54285714 4.25042017,9.87563025 4.25042017,10.2823529 C4.25042017,10.692437 3.91428571,11.0218487 3.50084034,11.0218487 L1.75966387,11.0218487 C1.34957983,11.0252101 1.01344538,10.692437 1.01008403,10.2823529 C1.01008403,9.87226891 1.34621849,9.54285714 1.75966387,9.54285714 L3.50084034,9.54285714 L3.50084034,9.54285714 Z M21.9142857,9.45546218 C22.3277311,9.45546218 22.6638655,9.78487395 22.6638655,10.194958 C22.6638655,10.605042 22.3277311,10.9344538 21.9142857,10.9344538 L20.1731092,10.9344538 C19.7630252,10.9378151 19.4268908,10.605042 19.4235294,10.194958 C19.4235294,9.78487395 19.7596639,9.45546218 20.1731092,9.45546218 L21.9142857,9.45546218 Z" id="Bombilla-idea_2Regular"></path>
        </g>
    </g>
</svg>

<svg width="24" height="24" viewBox="0 0 24 24" xmlns="http://www.w3.org/2000/svg"><path d="M15.017 15.032c1.385-.847 2.057-2.29 2.057-4.403 0-1.54-.49-5.137-5.032-5.234-.188-.007-.383-.007-.561-.007h-.044c-1.842.01-4.931.7-4.931 5.207 0 2.121.689 3.617 2.054 4.444l.709.427.007.82.01 1.334c0 .182.027.272.04.306.098.03.407.1 1.274.1h2.397c.864 0 1.186-.063 1.294-.097.027-.097.037-.198.037-.299l-.01-1.334-.004-.83c-.01 0 .703-.434.703-.434zM12.076 3.916c1.327.027 6.497.548 6.497 6.713 0 3.099-1.304 4.766-2.766 5.66l.01 1.345c0 .615-.175 1.092-.528 1.408-.343.31-.864.467-2.3.467h-2.396c-1.401 0-1.926-.158-2.269-.467-.36-.316-.54-.793-.54-1.408l-.01-1.338c-1.463-.888-2.767-2.568-2.767-5.704 0-6.212 5.062-6.676 6.423-6.686.209 0 .44 0 .646.01zm-.733 2.242c2.289.05 4.813 1.328 4.995 4.766.02.41-.3.757-.71.777h-.04a.742.742 0 01-.746-.7c-.155-2.97-2.531-3.344-3.543-3.364-.134-.003-.272.003-.41-.003a.746.746 0 01-.75-.74c0-.41.337-.74.75-.74.148 0 .313 0 .454.004zm3.718 13.946c.413 0 .75.333.75.74 0 .41-.337.74-.75.74H8.708a.746.746 0 01-.75-.74c0-.41.336-.74.75-.74h6.353zm-.858 2.04c.414 0 .75.333.75.74 0 .41-.336.74-.75.74h-4.83a.746.746 0 01-.75-.74c0-.41.337-.74.75-.74h4.83zM11.743 3.2a.746.746 0 01-.75-.74V.74c0-.41.336-.74.75-.74.413 0 .75.33.75.74v1.724a.745.745 0 01-.75.736zm6.124 1.98a.754.754 0 01-.528-.215.732.732 0 01-.01-1.036l.01-.01 1.23-1.22a.755.755 0 011.06 0c.289.286.292.75.006 1.039l-.006.007-1.234 1.216a.737.737 0 01-.528.219zM6.052 5.176a.755.755 0 01-1.059 0L3.763 3.96a.736.736 0 01-.01-1.039l.01-.01a.755.755 0 011.059 0l1.23 1.22c.29.286.293.75.007 1.039l-.007.006zM3.501 9.543c.413 0 .75.333.75.74 0 .41-.337.739-.75.739H1.76a.746.746 0 01-.75-.74c0-.41.336-.74.75-.74H3.5zm18.413-.088c.414 0 .75.33.75.74s-.336.74-.75.74h-1.74a.746.746 0 01-.75-.74c0-.41.336-.74.75-.74h1.74z" fill="#5CB615" fill-rule="nonzero"/></svg>
